**kern	**kern	**dynam
*part1	*part1	*part1
*staff2	*staff1	*
*I"Piano	*	*
*clefF4	*clefG2	*
*k[f#c#g#]	*k[f#c#g#]	*
=1	=1	=1
4E) 4G#	4g#) 4b	.
!	!LO:TX:b:i:t=crescendo e ritenuto	!
(4C# 4c#	(4e 4ee	.
=	=	=
4D 4c#	4f# 4ee	.
4E 4B	4g# 4dd	.
=	=	=
4F#) 4A	4a) 4cc#	.
(4D 4d	(4f# 4ff#	.
=	=	=
4E 4d	4gn 4ff#	.
4F# 4cn	4a 4ee	mf
=	=	=
8Gn) 8B	([2gn [2b 2ee	>
(8GGGnL	.	.
8BBB	.	.
8GGnJ	.	.
=	=	=
8BBL	2g_)) 2b_ [2dd	.
8D	.	.
8Gn	.	.
8BJ	.	.
=	=	=
!	!LO:TX:a:i:t=Più ritenuto	!
8d)	8g] 8b] 8dd]	]
8r	8r	.
4Gn 4B-X	4b-X 4cc#X	pp
=	=	=
*-	*-	*-
!!!system-decoration: {(s1,s2)}
